X: 34277
T: Reminiscing
R: barndance
M: 4/4
K: Eminor
|:"Em"B2 AG "D"A2 "B"F2|"Em"GFGA "B"B2 B,2|"Em"B2 AG "D"A2 "B"F2|"Em"GA"B"FG "Em"E4:|
|:"Am"c2 BA "B"B2 "Em"G2|"A"E2 AG "D"FE D2|"Bm"D2 EF"Em" G2 E2"A"|E2 AG "D"FE D2:|
|:"Em"E4 "D"F2 EF|"G"G8|"Em"G2 B2"D" A2 dc|"G"B4B3 e|
"Am"e2 dc "G"d2 B2|"D"A2 dc "Em"BAGF|"Am"E2 FG "D"AB"Em"GA|"B"F3 E "Em"E4:|

